!!!OTL: UND ALS DIE SCHNEIDER JAHRESTAG HATTEN
!!!ARE: Europa, Mitteleuropa, Deutschland, Berlin
!!!SCT: E1635
!!!YEM: Copyright 1995, estate of Helmut Schaffrath.
**kern
*ICvox
*Ivox
*M2/4
*k[f#]
*G:
{8d
=1
8g
8g
8g
8g
=2
8g
8g
8d}
{8d
=3
8g
8g
8b
8g
=4
4dd
8r}
{8b
=5
8cc
8cc
8cc
8cc
=6
4ee
8cc
8r}
=7
{8b
8b
8b
8b
=8
4dd
8b}
{8b
=9
8a
8g
8a
8b
=10
4g
8r}
==
!!!AGN: Staende -, Handwerker - Lied, Schneider
!!!ONB: ESAC (Essen Associative Code) Database: ERK3
!!!AMT: simple duple
!!!AIN: vox
!!!EED: Helmut Schaffrath
!!!EEV: 1.0
*-
